humanity-icon-theme/Humanity/actions/24/add-folder-to-archive.svg

<?xml version="1.0" encoding="UTF-8" standalone="no"?>
<!-- Created with Inkscape (http://www.inkscape.org/) -->
<svg
   xmlns:svg="http://www.w3.org/2000/svg"
   xmlns="http://www.w3.org/2000/svg"
   xmlns:xlink="http://www.w3.org/1999/xlink"
   version="1.0"
   width="24"
   height="24"
   id="svg3277">
  <defs
     id="defs3279">
    <linearGradient
       id="linearGradient4222">
      <stop
         id="stop4224"
         style="stop-color:#ffffff;stop-opacity:1"
         offset="0" />
      <stop
         id="stop4226"
         style="stop-color:#ffffff;stop-opacity:0"
         offset="1" />
    </linearGradient>
    <linearGradient
       x1="24.138529"
       y1="8.6973467"
       x2="24.138529"
       y2="39.236618"
       id="linearGradient5544"
       xlink:href="#linearGradient4222"
       gradientUnits="userSpaceOnUse"
       gradientTransform="matrix(0.2817955,0,0,0.2800956,12.186027,-0.985106)" />
    <linearGradient
       id="linearGradient2264">
      <stop
         id="stop2266"
         style="stop-color:#d7e866;stop-opacity:1"
         offset="0" />
      <stop
         id="stop2268"
         style="stop-color:#8cab2a;stop-opacity:1"
         offset="1" />
    </linearGradient>
    <linearGradient
       x1="24.103895"
       y1="15.168831"
       x2="24.103895"
       y2="32.485161"
       id="linearGradient5547"
       xlink:href="#linearGradient2264"
       gradientUnits="userSpaceOnUse"
       gradientTransform="matrix(0.4691323,0,0,0.4663025,7.689944,-5.1915285)" />
    <linearGradient
       id="linearGradient8265-821-176-38-919-66-249">
      <stop
         id="stop2687"
         style="stop-color:#ffffff;stop-opacity:0.27450982"
         offset="0" />
      <stop
         id="stop2689"
         style="stop-color:#ffffff;stop-opacity:0.07843138"
         offset="1" />
    </linearGradient>
    <linearGradient
       x1="18.03083"
       y1="16.407909"
       x2="20.054544"
       y2="24.627615"
       id="linearGradient5551"
       xlink:href="#linearGradient8265-821-176-38-919-66-249"
       gradientUnits="userSpaceOnUse"
       gradientTransform="matrix(0.2966887,0,0,0.3520695,8.8736481,11.123043)" />
    <linearGradient
       id="linearGradient2481">
      <stop
         id="stop2483"
         style="stop-color:#bb2b12;stop-opacity:1"
         offset="0" />
      <stop
         id="stop2485"
         style="stop-color:#cd7233;stop-opacity:1"
         offset="1" />
    </linearGradient>
    <linearGradient
       x1="10.318256"
       y1="14.992862"
       x2="4.1760364"
       y2="4.0514131"
       id="linearGradient5556"
       xlink:href="#linearGradient2481"
       gradientUnits="userSpaceOnUse"
       gradientTransform="matrix(1.0083043,0,0,1.0006232,6.992322,8.9977925)" />
    <linearGradient
       id="linearGradient2488">
      <stop
         id="stop2490"
         style="stop-color:#f0c178;stop-opacity:1"
         offset="0" />
      <stop
         id="stop3270"
         style="stop-color:#e18941;stop-opacity:1"
         offset="0.5" />
      <stop
         id="stop2493"
         style="stop-color:#ec4f18;stop-opacity:1"
         offset="1" />
    </linearGradient>
    <linearGradient
       x1="126.69791"
       y1="58.583481"
       x2="169.22964"
       y2="238.3999"
       id="linearGradient5554"
       xlink:href="#linearGradient2488"
       gradientUnits="userSpaceOnUse"
       gradientTransform="matrix(5.489342e-2,1.385132e-2,2.57263e-3,5.248166e-2,6.2803451,8.7370025)" />
    <linearGradient
       id="linearGradient3275">
      <stop
         id="stop3277"
         style="stop-color:#ffffff;stop-opacity:0"
         offset="0" />
      <stop
         id="stop3283"
         style="stop-color:#ffffff;stop-opacity:1"
         offset="0.245" />
      <stop
         id="stop3285"
         style="stop-color:#ffffff;stop-opacity:1"
         offset="0.77350003" />
      <stop
         id="stop3279"
         style="stop-color:#ffffff;stop-opacity:0"
         offset="1" />
    </linearGradient>
    <linearGradient
       x1="44.994774"
       y1="17.5"
       x2="3.0052247"
       y2="17.5"
       id="linearGradient5561"
       xlink:href="#linearGradient3275"
       gradientUnits="userSpaceOnUse"
       gradientTransform="matrix(0.5123229,0,0,0.4997434,-0.2958069,0.7544889)"
       spreadMethod="reflect" />
    <linearGradient
       id="linearGradient2929">
      <stop
         id="stop2931"
         style="stop-color:#ffffff;stop-opacity:1"
         offset="0" />
      <stop
         id="stop2933"
         style="stop-color:#ffffff;stop-opacity:1"
         offset="0.27127403" />
      <stop
         id="stop2935"
         style="stop-color:#ffffff;stop-opacity:0.6901961"
         offset="0.38989457" />
      <stop
         id="stop2937"
         style="stop-color:#ffffff;stop-opacity:0"
         offset="1" />
    </linearGradient>
    <linearGradient
       x1="26"
       y1="22"
       x2="26"
       y2="8"
       id="linearGradient5564"
       xlink:href="#linearGradient2929"
       gradientUnits="userSpaceOnUse"
       gradientTransform="matrix(0.5,0,0,0.5714285,1.0587409e-6,-0.5714291)" />
    <linearGradient
       id="linearGradient2909">
      <stop
         id="stop2911"
         style="stop-color:#c9af8b;stop-opacity:1"
         offset="0" />
      <stop
         id="stop2913"
         style="stop-color:#ad8757;stop-opacity:1"
         offset="0.24941477" />
      <stop
         id="stop2915"
         style="stop-color:#c2a57f;stop-opacity:1"
         offset="0.31247044" />
      <stop
         id="stop2917"
         style="stop-color:#9d7d53;stop-opacity:1"
         offset="1" />
    </linearGradient>
    <linearGradient
       x1="15.464298"
       y1="7.9756851"
       x2="15.464298"
       y2="45.04248"
       id="linearGradient5569"
       xlink:href="#linearGradient2909"
       gradientUnits="userSpaceOnUse"
       gradientTransform="matrix(0.5122637,0,0,0.4997434,-0.2943328,0.2627569)" />
    <linearGradient
       id="linearGradient2919">
      <stop
         id="stop2921"
         style="stop-color:#dac197;stop-opacity:1"
         offset="0" />
      <stop
         id="stop2923"
         style="stop-color:#c1a581;stop-opacity:1"
         offset="0.26124284" />
      <stop
         id="stop2925"
         style="stop-color:#dbc298;stop-opacity:1"
         offset="0.31579992" />
      <stop
         id="stop2927"
         style="stop-color:#a68b60;stop-opacity:1"
         offset="1" />
    </linearGradient>
    <linearGradient
       x1="24.822832"
       y1="15.377745"
       x2="24.996943"
       y2="37.27668"
       id="linearGradient5567"
       xlink:href="#linearGradient2919"
       gradientUnits="userSpaceOnUse"
       gradientTransform="matrix(0.6568374,0,0,0.7782314,-3.4038718,-7.3786984)" />
    <radialGradient
       cx="5"
       cy="41.5"
       r="5"
       fx="5"
       fy="41.5"
       id="radialGradient5579"
       xlink:href="#linearGradient3681"
       gradientUnits="userSpaceOnUse"
       gradientTransform="matrix(0.3075471,0,0,0.7,20.929151,-49.550003)" />
    <linearGradient
       id="linearGradient3703">
      <stop
         id="stop3705"
         style="stop-color:#000000;stop-opacity:0"
         offset="0" />
      <stop
         id="stop3711"
         style="stop-color:#000000;stop-opacity:1"
         offset="0.5" />
      <stop
         id="stop3707"
         style="stop-color:#000000;stop-opacity:0"
         offset="1" />
    </linearGradient>
    <linearGradient
       x1="17.554192"
       y1="46.000275"
       x2="17.554192"
       y2="34.999718"
       id="linearGradient5577"
       xlink:href="#linearGradient3703"
       gradientUnits="userSpaceOnUse"
       gradientTransform="matrix(0.9099856,0,0,0.6363637,-9.3867094,-5.2727278)" />
    <linearGradient
       id="linearGradient3681">
      <stop
         id="stop3683"
         style="stop-color:#000000;stop-opacity:1"
         offset="0" />
      <stop
         id="stop3685"
         style="stop-color:#000000;stop-opacity:0"
         offset="1" />
    </linearGradient>
    <radialGradient
       cx="5"
       cy="41.5"
       r="5"
       fx="5"
       fy="41.5"
       id="radialGradient5575"
       xlink:href="#linearGradient3681"
       gradientUnits="userSpaceOnUse"
       gradientTransform="matrix(0.3075471,0,0,0.7,-3.0708515,-49.550003)" />
    <linearGradient
       x1="24.138529"
       y1="8.6973467"
       x2="24.138529"
       y2="39.236618"
       id="linearGradient3357"
       xlink:href="#linearGradient4222"
       gradientUnits="userSpaceOnUse"
       gradientTransform="matrix(0.2817955,0,0,0.2800956,12.186027,-0.985106)" />
    <linearGradient
       x1="24.103895"
       y1="15.168831"
       x2="24.103895"
       y2="32.485161"
       id="linearGradient3360"
       xlink:href="#linearGradient2264"
       gradientUnits="userSpaceOnUse"
       gradientTransform="matrix(0.4691323,0,0,0.4663025,7.689944,-5.1915285)" />
    <linearGradient
       x1="18.03083"
       y1="16.407909"
       x2="20.054544"
       y2="24.627615"
       id="linearGradient3364"
       xlink:href="#linearGradient8265-821-176-38-919-66-249"
       gradientUnits="userSpaceOnUse"
       gradientTransform="matrix(0.2966887,0,0,0.3520695,8.8736481,11.123043)" />
    <linearGradient
       x1="126.69791"
       y1="58.583481"
       x2="169.22964"
       y2="238.3999"
       id="linearGradient3367"
       xlink:href="#linearGradient2488"
       gradientUnits="userSpaceOnUse"
       gradientTransform="matrix(5.489342e-2,1.385132e-2,2.57263e-3,5.248166e-2,6.2803451,8.7370025)" />
    <linearGradient
       x1="10.318256"
       y1="14.992862"
       x2="4.1760364"
       y2="4.0514131"
       id="linearGradient3369"
       xlink:href="#linearGradient2481"
       gradientUnits="userSpaceOnUse"
       gradientTransform="matrix(1.0083043,0,0,1.0006232,6.992322,8.9977925)" />
    <linearGradient
       x1="44.994774"
       y1="17.5"
       x2="3.0052247"
       y2="17.5"
       id="linearGradient3373"
       xlink:href="#linearGradient3275"
       gradientUnits="userSpaceOnUse"
       gradientTransform="matrix(0.5123229,0,0,0.4997434,-0.2958069,0.7544889)"
       spreadMethod="reflect" />
    <linearGradient
       x1="26"
       y1="22"
       x2="26"
       y2="8"
       id="linearGradient3376"
       xlink:href="#linearGradient2929"
       gradientUnits="userSpaceOnUse"
       gradientTransform="matrix(0.5,0,0,0.5714285,1.0587409e-6,-0.5714291)" />
    <linearGradient
       x1="24.822832"
       y1="15.377745"
       x2="24.996943"
       y2="37.27668"
       id="linearGradient3379"
       xlink:href="#linearGradient2919"
       gradientUnits="userSpaceOnUse"
       gradientTransform="matrix(0.6568374,0,0,0.7782314,-3.4038718,-7.3786984)" />
    <linearGradient
       x1="15.464298"
       y1="7.9756851"
       x2="15.464298"
       y2="45.04248"
       id="linearGradient3381"
       xlink:href="#linearGradient2909"
       gradientUnits="userSpaceOnUse"
       gradientTransform="matrix(0.5122637,0,0,0.4997434,-0.2943328,0.2627569)" />
  </defs>
  <g
     id="layer1">
    <g
       transform="matrix(1,0,0,0.5714285,0,10.285715)"
       id="g5906">
      <rect
         width="1.5331169"
         height="7.0000005"
         x="-1.5331169"
         y="-24.000002"
         transform="scale(-1,-1)"
         id="rect2484"
         style="opacity:0.4;fill:url(#radialGradient5575);fill-opacity:1;stroke:none" />
      <rect
         width="20.929667"
         height="7.0000005"
         x="1.5331169"
         y="17.000002"
         id="rect2486"
         style="opacity:0.4;fill:url(#linearGradient5577);fill-opacity:1;stroke:none" />
      <rect
         width="1.5331169"
         height="7.0000005"
         x="22.466885"
         y="-24.000002"
         transform="scale(1,-1)"
         id="rect3444"
         style="opacity:0.4;fill:url(#radialGradient5579);fill-opacity:1;stroke:none;display:inline" />
    </g>
    <path
       d="M 4.3215344,4.5105749 L 19.432145,4.5105749 C 20.314256,4.5105749 20.711228,4.3673749 20.964609,5.0103189 L 22.502289,9.4999979 L 22.502289,21.838634 C 22.502289,22.614888 22.555019,22.496285 21.672903,22.496285 L 2.3270889,22.496285 C 1.4449747,22.496285 1.4977016,22.614888 1.4977016,21.838634 L 1.4977016,9.4999979 L 3.0353812,5.0103189 C 3.2816937,4.3803609 3.4394202,4.5105749 4.3215344,4.5105749 L 4.3215344,4.5105749 L 4.3215344,4.5105749 z"
       id="path2488"
       style="fill:url(#linearGradient3379);fill-opacity:1;fill-rule:nonzero;stroke:url(#linearGradient3381);stroke-width:0.99420071;stroke-linecap:round;stroke-linejoin:miter;marker:none;stroke-miterlimit:4;stroke-dasharray:none;stroke-dashoffset:0;stroke-opacity:1;visibility:visible;display:block;overflow:visible" />
    <path
       d="M 11,3.9999979 C 11.666667,3.9999979 12.333333,3.9999979 13,3.9999979 C 13,6.6666629 13,9.3333319 13,11.999998 C 12.803135,11.999998 12.60627,11.999998 12.409407,11.999998 C 12.207844,11.999998 12.006281,11.999998 11.804719,11.999998 C 11.642454,11.999998 11.480189,11.999998 11.317927,11.999998 C 11.21195,11.999998 11.105975,11.999998 11,11.999998 C 11,9.3333319 11,6.6666629 11,3.9999979 L 11,3.9999979 z"
       id="rect3326"
       style="opacity:0.4;fill:url(#linearGradient3376);fill-opacity:1;fill-rule:nonzero;stroke:none;stroke-width:1;marker:none;visibility:visible;display:inline;overflow:visible;enable-background:accumulate" />
    <path
       d="M 1.5,9.4999979 L 22.499885,9.4999979"
       id="path3273"
       style="opacity:0.4;fill:none;stroke:url(#linearGradient3373);stroke-width:0.99999994px;stroke-linecap:square;stroke-linejoin:miter;stroke-opacity:1;display:inline" />
    <path
       d="M 8.542,11.586998 C 8.5418402,15.55993 8.54607,19.532862 8.542,23.505793 C 12.89867,23.483613 16.153298,23.455813 20.51,23.440273 C 19.862162,23.538653 20.53253,15.789917 20.52041,12.518999 C 18.472925,12.511999 16.423843,12.532949 14.377357,12.508529 C 13.745862,12.326623 13.400681,11.479635 12.674854,11.586996 C 11.297237,11.586996 9.9196188,11.586996 8.542001,11.586996 L 8.542,11.586998 z"
       id="rect2196"
       style="fill:#ffffff;fill-opacity:1;stroke:#a8a8a8;stroke-width:0.97899997;stroke-linecap:round;stroke-linejoin:round;stroke-miterlimit:4;stroke-dasharray:none;stroke-opacity:1;display:inline" />
    <path
       d="M 10.493,14.543998 C 11.149364,14.543998 21.998576,14.543998 22.507535,14.543998 C 22.507535,15.159411 22.482855,23.517894 22.453465,23.517894 C 17.894622,23.535644 11.820411,23.504004 10.492997,23.504004 C 10.492997,22.342533 10.492997,16.934247 10.492997,14.544003 L 10.493,14.543998 z"
       id="rect3086"
       style="fill:url(#linearGradient3367);fill-opacity:1;stroke:url(#linearGradient3369);stroke-width:0.95339239;stroke-linecap:round;stroke-linejoin:round;stroke-miterlimit:4;stroke-dasharray:none;stroke-opacity:1;display:inline" />
    <path
       d="M 10.761,14.003998 C 10.159721,14.015108 9.9341508,14.678048 10,15.208242 C 10.0058,16.707011 9.97977,18.207072 10,19.705033 C 10.04642,20.074763 10.505882,20.011247 10.761,19.939917 C 15.101552,19.124378 18.375478,18.308839 22.71603,17.4933 C 23.118733,17.359888 22.962902,16.889884 22.994176,16.570885 C 22.976616,15.948497 23.033806,15.319688 22.956296,14.702346 C 22.860936,14.241576 22.405824,13.934338 21.946495,14.003998 C 17.907202,14.003998 14.800293,14.003998 10.761,14.003998 L 10.761,14.003998 z"
       id="path2509"
       style="fill:url(#linearGradient3364);fill-opacity:1;fill-rule:evenodd;stroke:none" />
    <path
       d="M 11.492,23.004412 L 11.492,15.503998 L 21.992115,15.503998"
       id="path2406"
       style="opacity:0.35;fill:none;stroke:#ffffff;stroke-width:1px;stroke-linecap:butt;stroke-linejoin:miter;stroke-opacity:1" />
    <path
       d="M 16.489465,3.500009 L 16.489465,0.500009 L 20.489466,0.500009 L 20.489466,3.500009 L 23.489466,3.500009 L 23.489466,7.500009 L 20.489466,7.500009 L 20.489466,10.5 L 16.489465,10.5 L 16.489465,7.500009 L 13.5,7.500009 L 13.5,3.500009 L 16.489465,3.500009 L 16.489465,3.500009 z"
       id="path2262"
       style="fill:url(#linearGradient3360);fill-opacity:1;fill-rule:evenodd;stroke:#699536;stroke-width:1;stroke-linecap:butt;stroke-linejoin:round;stroke-miterlimit:4;stroke-dasharray:none;stroke-opacity:1;display:inline" />
    <path
       d="M 17.489466,4.500009 L 17.489466,1.500009 L 19.489466,1.500009 L 19.489466,4.500009 L 22.489466,4.500009 L 22.489466,6.500009 L 19.489466,6.500009 L 19.489466,9.500009 L 17.489466,9.500009 L 17.489466,6.500009 L 14.489465,6.500009 L 14.489465,4.500009 L 17.489466,4.500009 z"
       id="path2272"
       style="opacity:0.4;fill:none;stroke:url(#linearGradient3357);stroke-width:1;stroke-linecap:butt;stroke-linejoin:miter;stroke-miterlimit:4;stroke-dasharray:none;stroke-opacity:1;display:inline" />
  </g>
</svg>

<?xml version="1.0" encoding="UTF-8" standalone="no"?>
<!-- Created with Inkscape (http://www.inkscape.org/) -->
<svg id="svg3277" xmlns="http://www.w3.org/2000/svg" height="24" width="24" version="1.0" xmlns:xlink="http://www.w3.org/1999/xlink">
 <defs id="defs3279">
  <radialGradient id="radialGradient5579" xlink:href="#linearGradient3681" gradientUnits="userSpaceOnUse" cy="41.5" cx="5" gradientTransform="matrix(.30755 0 0 .7 20.929 -49.55)" r="5"/>
  <linearGradient id="linearGradient5577" y2="35" gradientUnits="userSpaceOnUse" x2="17.554" gradientTransform="matrix(.90999 0 0 .63636 -9.3867 -5.2727)" y1="46" x1="17.554">
   <stop id="stop3705" style="stop-opacity:0" offset="0"/>
   <stop id="stop3711" offset=".5"/>
   <stop id="stop3707" style="stop-opacity:0" offset="1"/>
  </linearGradient>
  <linearGradient id="linearGradient3681">
   <stop id="stop3683" offset="0"/>
   <stop id="stop3685" style="stop-opacity:0" offset="1"/>
  </linearGradient>
  <radialGradient id="radialGradient5575" xlink:href="#linearGradient3681" gradientUnits="userSpaceOnUse" cy="41.5" cx="5" gradientTransform="matrix(.30755 0 0 .7 -3.0709 -49.55)" r="5"/>
  <linearGradient id="linearGradient3357" y2="39.237" gradientUnits="userSpaceOnUse" x2="24.139" gradientTransform="matrix(.28180 0 0 .28010 12.186 -.98511)" y1="8.6973" x1="24.139">
   <stop id="stop4224" style="stop-color:#fff" offset="0"/>
   <stop id="stop4226" style="stop-color:#fff;stop-opacity:0" offset="1"/>
  </linearGradient>
  <linearGradient id="linearGradient3360" y2="32.485" gradientUnits="userSpaceOnUse" x2="24.104" gradientTransform="matrix(.46913 0 0 .46630 7.6899 -5.1915)" y1="15.169" x1="24.104">
   <stop id="stop2266" style="stop-color:#d7e866" offset="0"/>
   <stop id="stop2268" style="stop-color:#8cab2a" offset="1"/>
  </linearGradient>
  <linearGradient id="linearGradient3364" y2="24.628" gradientUnits="userSpaceOnUse" x2="20.055" gradientTransform="matrix(.29669 0 0 .35207 8.8736 11.123)" y1="16.408" x1="18.031">
   <stop id="stop2687" style="stop-color:#fff;stop-opacity:.27451" offset="0"/>
   <stop id="stop2689" style="stop-color:#fff;stop-opacity:.078431" offset="1"/>
  </linearGradient>
  <linearGradient id="linearGradient3367" y2="238.4" gradientUnits="userSpaceOnUse" x2="169.23" gradientTransform="matrix(.054893 .013851 .0025726 .052482 6.2803 8.737)" y1="58.583" x1="126.7">
   <stop id="stop2490" style="stop-color:#f0c178" offset="0"/>
   <stop id="stop3270" style="stop-color:#e18941" offset=".5"/>
   <stop id="stop2493" style="stop-color:#ec4f18" offset="1"/>
  </linearGradient>
  <linearGradient id="linearGradient3369" y2="4.0514" gradientUnits="userSpaceOnUse" x2="4.176" gradientTransform="matrix(1.0083 0 0 1.0006 6.9923 8.9978)" y1="14.993" x1="10.318">
   <stop id="stop2483" style="stop-color:#bb2b12" offset="0"/>
   <stop id="stop2485" style="stop-color:#cd7233" offset="1"/>
  </linearGradient>
  <linearGradient id="linearGradient3373" y2="17.5" spreadMethod="reflect" gradientUnits="userSpaceOnUse" x2="3.0052" gradientTransform="matrix(.51232 0 0 .49974 -.29581 .75449)" y1="17.5" x1="44.995">
   <stop id="stop3277" style="stop-color:#fff;stop-opacity:0" offset="0"/>
   <stop id="stop3283" style="stop-color:#fff" offset=".245"/>
   <stop id="stop3285" style="stop-color:#fff" offset=".77350"/>
   <stop id="stop3279" style="stop-color:#fff;stop-opacity:0" offset="1"/>
  </linearGradient>
  <linearGradient id="linearGradient3376" y2="8" gradientUnits="userSpaceOnUse" x2="26" gradientTransform="matrix(.5 0 0 .57143 .0000010587 -.57143)" y1="22" x1="26">
   <stop id="stop2931" style="stop-color:#fff" offset="0"/>
   <stop id="stop2933" style="stop-color:#fff" offset=".27127"/>
   <stop id="stop2935" style="stop-color:#fff;stop-opacity:.69020" offset=".38989"/>
   <stop id="stop2937" style="stop-color:#fff;stop-opacity:0" offset="1"/>
  </linearGradient>
  <linearGradient id="linearGradient3379" y2="37.277" gradientUnits="userSpaceOnUse" x2="24.997" gradientTransform="matrix(.65684 0 0 .77823 -3.4039 -7.3787)" y1="15.378" x1="24.823">
   <stop id="stop2921" style="stop-color:#dac197" offset="0"/>
   <stop id="stop2923" style="stop-color:#c1a581" offset=".26124"/>
   <stop id="stop2925" style="stop-color:#dbc298" offset=".31580"/>
   <stop id="stop2927" style="stop-color:#a68b60" offset="1"/>
  </linearGradient>
  <linearGradient id="linearGradient3381" y2="45.042" gradientUnits="userSpaceOnUse" x2="15.464" gradientTransform="matrix(.51226 0 0 .49974 -.29433 .26276)" y1="7.9757" x1="15.464">
   <stop id="stop2911" style="stop-color:#c9af8b" offset="0"/>
   <stop id="stop2913" style="stop-color:#ad8757" offset=".24941"/>
   <stop id="stop2915" style="stop-color:#c2a57f" offset=".31247"/>
   <stop id="stop2917" style="stop-color:#9d7d53" offset="1"/>
  </linearGradient>
 </defs>
 <g id="layer1">
  <g id="g5906" transform="matrix(1 0 0 .57143 0 10.286)">
   <rect id="rect2484" style="opacity:.4;fill:url(#radialGradient5575)" transform="scale(-1)" height="7" width="1.5331" y="-24" x="-1.5331"/>
   <rect id="rect2486" style="opacity:.4;fill:url(#linearGradient5577)" height="7" width="20.93" y="17" x="1.5331"/>
   <rect id="rect3444" style="opacity:.4;fill:url(#radialGradient5579)" transform="scale(1,-1)" height="7" width="1.5331" y="-24" x="22.467"/>
  </g>
  <path id="path2488" style="stroke:url(#linearGradient3381);stroke-linecap:round;stroke-width:.99420;display:block;fill:url(#linearGradient3379)" d="m4.3215 4.5106h15.11c0.882 0 1.279-0.1432 1.533 0.4997l1.537 4.4897v12.339c0 0.776 0.053 0.657-0.829 0.657h-19.346c-0.882 0-0.8293 0.119-0.8293-0.657v-12.339l1.5377-4.4897c0.2463-0.6299 0.404-0.4997 1.2861-0.4997z"/>
  <path id="rect3326" style="opacity:.4;fill:url(#linearGradient3376)" d="m11 4h2v8h-0.591-0.604-0.487-0.318v-8z"/>
  <path id="path3273" style="opacity:.4;stroke:url(#linearGradient3373);stroke-linecap:square;stroke-width:1px;fill:none" d="m1.5 9.5h21"/>
  <path id="rect2196" style="stroke-linejoin:round;stroke:#a8a8a8;stroke-linecap:round;stroke-width:0.979;fill:#fff" d="m8.542 11.587c-0.0002 3.973 0.0041 7.946 0 11.919 4.357-0.022 7.611-0.05 11.968-0.066-0.648 0.099 0.023-7.65 0.01-10.921-2.047-0.007-4.096 0.014-6.143-0.01-0.631-0.182-0.976-1.029-1.702-0.922h-4.133z"/>
  <path id="rect3086" style="stroke-linejoin:round;stroke:url(#linearGradient3369);stroke-linecap:round;stroke-width:.95339;fill:url(#linearGradient3367)" d="m10.493 14.544h12.015c0 0.615-0.025 8.974-0.055 8.974-4.558 0.018-10.633-0.014-11.96-0.014v-8.96z"/>
  <path id="path2509" style="fill:url(#linearGradient3364);fill-rule:evenodd" d="m10.761 14.004c-0.601 0.011-0.8268 0.674-0.761 1.204 0.006 1.499-0.0202 2.999 0 4.497 0.046 0.37 0.506 0.306 0.761 0.235 4.341-0.816 7.614-1.631 11.955-2.447 0.403-0.133 0.247-0.603 0.278-0.922-0.017-0.623 0.04-1.251-0.038-1.869-0.095-0.46-0.55-0.768-1.01-0.698h-11.185z"/>
  <path id="path2406" style="opacity:.35;stroke:#fff;stroke-width:1px;fill:none" d="m11.492 23.004v-7.5h10.5"/>
  <path id="path2262" style="stroke-linejoin:round;fill-rule:evenodd;stroke:#699536;fill:url(#linearGradient3360)" d="m16.489 3.5v-3l4 0.00001v3h3v4h-3v3h-4v-3h-2.989v-4h2.989z"/>
  <path id="path2272" style="opacity:.4;stroke:url(#linearGradient3357);fill:none" d="m17.489 4.5v-3h2v3h3v2h-3v3h-2v-3h-3v-2h3z"/>
 </g>
</svg>
